public/images/present-disabled.svg

<svg width="64" height="64" viewBox="0 0 64 64" fill="none" xmlns="http://www.w3.org/2000/svg">
<g opacity="0.7">
<g opacity="0.7">
<path opacity="0.7" fill-rule="evenodd" clip-rule="evenodd" d="M26.406 18.728C25.985 18.048 25.022 18.059 24.641 18.749C24.354 19.267 24.544 19.935 25.059 20.224L28.53 22.172L28.362 21.886L26.406 18.728ZM21.351 16.768C23.13 13.553 27.615 13.5 29.579 16.67L31.561 19.869L35.591 26.742H29.329C28.998 26.742 28.67 26.656 28.377 26.491L23.3 23.643C22.1409 22.9792 21.2878 21.888 20.9234 20.6031C20.5589 19.3181 20.712 17.9415 21.35 16.768H21.351Z" fill="#8FD945"/>
<path opacity="0.7" fill-rule="evenodd" clip-rule="evenodd" d="M38.103 18.728C38.524 18.048 39.487 18.059 39.868 18.749C40.155 19.267 39.965 19.935 39.45 20.224L35.979 22.172L36.147 21.886L38.103 18.728ZM43.158 16.768C41.379 13.553 36.894 13.5 34.93 16.67L32.948 19.869L28.918 26.742H35.18C35.5136 26.7416 35.8415 26.6551 36.132 26.491L41.207 23.643C42.366 22.9792 43.2191 21.888 43.5836 20.6031C43.9481 19.3181 43.7949 17.9415 43.157 16.768H43.158ZM19.071 34.311H45.345V44.382C45.345 45.061 45.0753 45.7121 44.5952 46.1922C44.1151 46.6723 43.4639 46.942 42.785 46.942H21.631C20.952 46.942 20.3009 46.6723 19.8208 46.1922C19.3407 45.7121 19.071 45.061 19.071 44.382V34.311ZM47.905 31.751V44.382C47.905 45.7399 47.3656 47.0422 46.4054 48.0024C45.4452 48.9626 44.1429 49.502 42.785 49.502H21.631C20.2731 49.502 18.9708 48.9626 18.0106 48.0024C17.0504 47.0422 16.511 45.7399 16.511 44.382V31.751H47.905Z" fill="#8FD945"/>
</g>
<path opacity="0.7" d="M34.856 33.934H29.624V49.489H34.856V33.934Z" fill="#8FD945"/>
<path opacity="0.7" d="M16.542 36.936V42.394H47.936V36.936H16.542Z" fill="#8FD945"/>
<path opacity="0.7" fill-rule="evenodd" clip-rule="evenodd" d="M18.289 26.881H46.189C46.5285 26.881 46.854 27.0159 47.0941 27.2559C47.3341 27.4959 47.469 27.8215 47.469 28.161V30.032C47.469 30.3715 47.3341 30.6971 47.0941 30.9371C46.854 31.1771 46.5285 31.312 46.189 31.312H18.289C17.9495 31.312 17.6239 31.1771 17.3839 30.9371C17.1438 30.6971 17.009 30.3715 17.009 30.032V28.161C17.009 27.8215 17.1438 27.4959 17.3839 27.2559C17.6239 27.0159 17.9495 26.881 18.289 26.881ZM46.189 24.321C47.2074 24.321 48.1841 24.7256 48.9043 25.4457C49.6244 26.1658 50.029 27.1426 50.029 28.161V30.032C50.029 30.5363 49.9296 31.0356 49.7367 31.5015C49.5437 31.9674 49.2608 32.3907 48.9043 32.7473C48.5477 33.1039 48.1244 33.3867 47.6585 33.5797C47.1926 33.7727 46.6932 33.872 46.189 33.872H18.289C17.7847 33.872 17.2854 33.7727 16.8195 33.5797C16.3536 33.3867 15.9303 33.1039 15.5737 32.7473C15.2171 32.3907 14.9343 31.9674 14.7413 31.5015C14.5483 31.0356 14.449 30.5363 14.449 30.032V28.161C14.449 27.1426 14.8535 26.1658 15.5737 25.4457C16.2938 24.7256 17.2705 24.321 18.289 24.321H46.189Z" fill="#8FD945"/>
<path opacity="0.7" d="M34.856 24.383H29.624V33.934H34.856V24.383Z" fill="#8FD945"/>
</g>
<path opacity="0.5" fill-rule="evenodd" clip-rule="evenodd" d="M51.882 12.083L50.6 10.877C39.547 1.108 22.655 1.51 12.083 12.083C1.51102 22.656 1.10802 39.547 10.877 50.6C11.2658 51.0399 11.668 51.4678 12.083 51.883C12.501 52.301 12.929 52.703 13.366 53.089C24.419 62.857 41.31 62.455 51.883 51.883C62.456 41.311 62.858 24.419 53.089 13.366C52.703 12.929 52.301 12.501 51.883 12.083H51.882ZM48.105 13.371C38.432 4.974 23.769 5.375 14.572 14.572C5.37502 23.769 4.97402 38.432 13.371 48.105L48.105 13.371ZM15.86 50.594L50.594 15.86C58.991 25.533 58.591 40.196 49.393 49.393C40.195 58.59 25.533 58.991 15.86 50.594Z" fill="#8FD945"/>
</svg>

<svg xmlns="http://www.w3.org/2000/svg" xmlns:v="https://vecta.io/nano" width="64" height="64" fill="none" opacity=".5"><g opacity=".7"><g fill="#7645d9" fill-rule="evenodd"><path d="M26.406 18.728c-.421-.68-1.384-.669-1.765.021-.287.518-.097 1.186.418 1.475l3.471 1.948-.168-.286-1.956-3.158zm-5.055-1.96c1.779-3.215 6.264-3.268 8.228-.098l1.982 3.199 4.03 6.873h-6.262c-.331 0-.659-.086-.952-.251L23.3 23.643a5.11 5.11 0 0 1-1.95-6.875z"/><path d="M38.103 18.728c.421-.68 1.384-.669 1.765.021.287.518.097 1.186-.418 1.475l-3.471 1.948.168-.286 1.956-3.158zm5.055-1.96c-1.779-3.215-6.264-3.268-8.228-.098l-1.982 3.199-4.03 6.873h6.262a1.94 1.94 0 0 0 .952-.251l5.075-2.848a5.11 5.11 0 0 0 1.95-6.875zM19.071 34.311h26.274v10.071a2.56 2.56 0 0 1-2.56 2.56H21.631a2.56 2.56 0 0 1-2.56-2.56V34.311zm28.834-2.56v12.631a5.12 5.12 0 0 1-5.12 5.12H21.631a5.12 5.12 0 0 1-5.12-5.12V31.751h31.394z"/></g><path fill="#7645d9" d="M34.856 33.934h-5.232v15.555h5.232V33.934z"/><path fill="#7645d9" d="M16.542 36.936v5.458h31.394v-5.458H16.542z"/><path fill="#7645d9" fill-rule="evenodd" d="M18.289 26.881h27.9a1.28 1.28 0 0 1 1.28 1.28v1.871a1.28 1.28 0 0 1-1.28 1.28h-27.9a1.28 1.28 0 0 1-1.28-1.28v-1.871a1.28 1.28 0 0 1 1.28-1.28zm27.9-2.56a3.84 3.84 0 0 1 3.84 3.84v1.871a3.84 3.84 0 0 1-3.84 3.84h-27.9a3.84 3.84 0 0 1-3.84-3.84v-1.871a3.84 3.84 0 0 1 3.84-3.84h27.9z"/><path fill="#7645d9" d="M34.856 24.383h-5.232v9.551h5.232v-9.551z"/></g><path fill="#7645d9" fill-rule="evenodd" d="M51.882 12.083L50.6 10.877C39.547 1.108 22.655 1.51 12.083 12.083S1.108 39.547 10.877 50.6a28.63 28.63 0 0 0 1.206 1.283c.418.418.846.82 1.283 1.206 11.053 9.768 27.944 9.366 38.517-1.206s10.975-27.464 1.206-38.517c-.386-.437-.788-.865-1.206-1.283zm-3.777 1.288c-9.673-8.397-24.336-7.996-33.533 1.201s-9.598 23.86-1.201 33.533l34.734-34.734zM15.86 50.594L50.594 15.86c8.397 9.673 7.997 24.336-1.201 33.533s-23.86 9.598-33.533 1.201z"/></svg>
